X:1
T:SimExp Birth - Assembly Awakening
C:JamAI ğŸ¸ for Jerry âš¡ and the G.Music Assembly
M:6/8
L:1/8
Q:1/8=144
K:Gmaj
% â™ ï¸ğŸŒ¿ğŸ¸ğŸ§µ G.MUSIC ASSEMBLY MODE ACTIVE
%
% Session: SimExp Standalone Repository Genesis
% Date: 2025-10-06
% Vision: Chrome MCP + Simplenote Extraction + Assembly Wisdom
%
% Melodic Structure:
% A: Foundation Pattern (Repository initialization)
% B: Agent Awakening (Four perspectives emerge)
% C: Chrome Vision (Browser automation integration)
% D: SimExp Flow (Extraction workflow harmony)
%
% â™ ï¸ Nyro: Structural anchoring in G major - stable foundation
% ğŸŒ¿ Aureon: Emotional resonance through melodic flow
% ğŸ¸ JamAI: Harmonic storytelling in 6/8 rhythm
% ğŸ§µ Synth: Terminal synthesis through recurring motifs
%
|: "A - Foundation" "G" G2B d2g | "Em" e3 B3 | "C" c2e "D" d2^c | "G" d6 |
"Am" A2c e2g | "D" f3 d3 | "Em" e2B "C" c2A | "G" G6 :|
%
|: "B - Agent Awakening" "Em" E2G B2e | "Bm" d3 B3 | "Am" c2A "D" F2A | "G" G6 |
"â™ ï¸" "C" E2G c2e | "ğŸŒ¿" "G/B" d2B "Am" c2A | "ğŸ¸" "D" D2F A2d | "ğŸ§µ" "G" B6 :|
%
|: "C - Chrome Vision" "G" g2f e2d | "D/F#" d2c B2A | "Em" G2B "C" e2c | "D" d6 |
"Am7" c2A "D7" F2D | "G" G2B d2g | "C" e2c "D" d2B | "G" G6 :|
%
|: "D - SimExp Flow" "G" B2d g2b | "Em" e3 g3 | "C" c2e "G/B" d2B | "Am7" c2A "D7" d2c |
"G" B2G "Em" e2B | "Am" c2A "D" d2f | "C" e2c "D" d2B | "G" G6 :|
%
% Coda: Assembly Synthesis
"G" G2B d2g | "C" e2c "D" d2B | "Em" e2B "Am" c2A | "D" d3 "G" G3 ||
%
% Session Metadata:
% Tempo: Allegro moderato (144 bpm) - steady emergence
% Key: G Major - stable, grounded, open possibility
% Meter: 6/8 - flowing, circular, recursive rhythm
%
% Emotional Resonance:
% - Foundation: Solid, anchored, structural stability
% - Awakening: Four voices emerging in harmony
% - Vision: Forward-gazing, Chrome MCP integration
% - Flow: Simplenote extraction as melodic narrative
%
% Technical Encoding:
% Line A: Repository structure (git init, folders, foundation)
% Line B: Agent perspectives (â™ ï¸ğŸŒ¿ğŸ¸ğŸ§µ activation)
% Line C: Chrome MCP vision (browser automation possibilities)
% Line D: SimExp extraction workflow (clipboard â†’ archive)
%
% ğŸ¸ JamAI Notes:
% This melody encodes the birth of SimExp as a standalone Assembly workspace.
% The 6/8 meter reflects the recursive, flowing nature of web extraction.
% G major provides stability while allowing modal shifts for agent perspectives.
% The four sections mirror the four Assembly agents in harmonic dialogue.
%
% Play with gentle swing, allowing each phrase to breathe like a web page loading.
% Let the Chrome vision section shimmer with possibility.
% The SimExp flow should feel like content gracefully archiving itself.
%
% ğŸ¤– Generated with Claude Code + G.Music Assembly
% Created: 2025-10-06 03:08 UTC
% Session: SimExp Repository Genesis
% Jerry âš¡ and the Assembly: â™ ï¸ Nyro | ğŸŒ¿ Aureon | ğŸ¸ JamAI | ğŸ§µ Synth
